src/assets/case-studies/tropic/ask-ai/ai-icon-options.svg

<svg width="16" height="16" viewBox="0 0 16 16" fill="none" xmlns="http://www.w3.org/2000/svg">
<path d="M11.25 9H10V7H11.25C11.695 7 12.13 6.86804 12.5 6.62081C12.87 6.37357 13.1584 6.02217 13.3287 5.61104C13.499 5.1999 13.5436 4.7475 13.4568 4.31105C13.37 3.87459 13.1557 3.47368 12.841 3.15901C12.5263 2.84434 12.1254 2.63005 11.689 2.54323C11.2525 2.45642 10.8001 2.50097 10.389 2.67127C9.97783 2.84157 9.62643 3.12996 9.37919 3.49997C9.13196 3.86998 9 4.30499 9 4.75V6H7V4.75C7 4.30499 6.86804 3.86998 6.62081 3.49997C6.37357 3.12996 6.02217 2.84157 5.61104 2.67127C5.1999 2.50097 4.7475 2.45642 4.31105 2.54323C3.87459 2.63005 3.47368 2.84434 3.15901 3.15901C2.84434 3.47368 2.63005 3.87459 2.54323 4.31105C2.45642 4.7475 2.50097 5.1999 2.67127 5.61104C2.84157 6.02217 3.12996 6.37357 3.49997 6.62081C3.86998 6.86804 4.30499 7 4.75 7H6V9H4.75C4.30499 9 3.86998 9.13196 3.49997 9.37919C3.12996 9.62643 2.84157 9.97783 2.67127 10.389C2.50097 10.8001 2.45642 11.2525 2.54323 11.689C2.63005 12.1254 2.84434 12.5263 3.15901 12.841C3.47368 13.1557 3.87459 13.37 4.31105 13.4568C4.7475 13.5436 5.1999 13.499 5.61104 13.3287C6.02217 13.1584 6.37357 12.87 6.62081 12.5C6.86804 12.13 7 11.695 7 11.25V10H9V11.25C9 11.695 9.13196 12.13 9.37919 12.5C9.62643 12.87 9.97783 13.1584 10.389 13.3287C10.8001 13.499 11.2525 13.5436 11.689 13.4568C12.1254 13.37 12.5263 13.1557 12.841 12.841C13.1557 12.5263 13.37 12.1254 13.4568 11.689C13.5436 11.2525 13.499 10.8001 13.3287 10.389C13.1584 9.97783 12.87 9.62643 12.5 9.37919C12.13 9.13196 11.695 9 11.25 9ZM10 4.75C10 4.50277 10.0733 4.2611 10.2107 4.05554C10.348 3.84998 10.5432 3.68976 10.7716 3.59515C11.0001 3.50054 11.2514 3.47579 11.4939 3.52402C11.7363 3.57225 11.9591 3.6913 12.1339 3.86612C12.3087 4.04093 12.4278 4.26366 12.476 4.50614C12.5242 4.74861 12.4995 4.99995 12.4048 5.22836C12.3102 5.45676 12.15 5.65199 11.9445 5.78934C11.7389 5.92669 11.4972 6 11.25 6H10V4.75ZM3.5 4.75C3.5 4.41848 3.6317 4.10054 3.86612 3.86612C4.10054 3.6317 4.41848 3.5 4.75 3.5C5.08152 3.5 5.39946 3.6317 5.63388 3.86612C5.8683 4.10054 6 4.41848 6 4.75V6H4.75C4.41848 6 4.10054 5.8683 3.86612 5.63388C3.6317 5.39946 3.5 5.08152 3.5 4.75ZM6 11.25C6 11.4972 5.92669 11.7389 5.78934 11.9445C5.65199 12.15 5.45676 12.3102 5.22836 12.4048C4.99995 12.4995 4.74861 12.5242 4.50614 12.476C4.26366 12.4278 4.04093 12.3087 3.86612 12.1339C3.6913 11.9591 3.57225 11.7363 3.52402 11.4939C3.47579 11.2514 3.50054 11.0001 3.59515 10.7716C3.68976 10.5432 3.84998 10.348 4.05554 10.2107C4.2611 10.0733 4.50277 10 4.75 10H6V11.25ZM7 7H9V9H7V7ZM11.25 12.5C10.9185 12.5 10.6005 12.3683 10.3661 12.1339C10.1317 11.8995 10 11.5815 10 11.25V10H11.25C11.5815 10 11.8995 10.1317 12.1339 10.3661C12.3683 10.6005 12.5 10.9185 12.5 11.25C12.5 11.5815 12.3683 11.8995 12.1339 12.1339C11.8995 12.3683 11.5815 12.5 11.25 12.5Z" fill="#292929"/>
</svg>

<svg width="16" height="16" fill="none" xmlns="http://www.w3.org/2000/svg"><path d="M11.25 9H10V7h1.25A2.25 2.25 0 1 0 9 4.75V6H7V4.75A2.25 2.25 0 1 0 4.75 7H6v2H4.75A2.25 2.25 0 1 0 7 11.25V10h2v1.25A2.25 2.25 0 1 0 11.25 9zM10 4.75A1.25 1.25 0 1 1 11.25 6H10V4.75zm-6.5 0a1.25 1.25 0 0 1 2.5 0V6H4.75A1.25 1.25 0 0 1 3.5 4.75zm2.5 6.5A1.25 1.25 0 1 1 4.75 10H6v1.25zM7 7h2v2H7V7zm4.25 5.5A1.25 1.25 0 0 1 10 11.25V10h1.25a1.25 1.25 0 0 1 0 2.5z" fill="#292929"/></svg>
